X: 10435
T: Donegal Lass, The
R: jig
M: 6/8
K: Dmajor
Ace aed|edB A3|GBd G3|FAd F3|
Ace aed|cdB A2a|aed cdB|ABG A3:|
GBd G3|FAd F3|e2e ecA|e2e ecA|
GBd G3|FAd F2a|aed cdB|ABG A3:|

